X:42
T:AIR XLII. I wish my Love were in a Mire.
B:Joseph Mitchell: "The Highland Fair" (1731)
Z:Jack Campin <http://www.campin.me.uk/>
M:C|
L:1/8
K:AMin
(GA)| c2 (c/d/e) c3 E    |(DC)      (DE)     A3      G |c2  G2  (cd)(ed)|(d/c/B/d/ c)(B/A/) A2
(ed)| c2 (c/d/e) c3 E    |(DC)      (DE)     A3      c |G3   A  (GE)(DC)|(AB/c/)  (BA)      A2||\
(ed)| c2 (GA)    G3(e/d/)|(c/B/c/d/) c(B/A/) G2 (c/d/e)|f2 (ga) (ge)(dc)| f2      (ed)      d2
(ef)|(ge)(ce)    g3 E    |(DC)      (DE)     A2 (A/B/c)|G3   A  (GE)(DC)| A/B/c    BA       A2|]
